frontend/public/svg/interface/target.svg

<svg width="175" height="178" viewBox="0 0 175 178" fill="none" xmlns="http://www.w3.org/2000/svg">
<g clip-path="url(#clip0)">
<path d="M172.628 58.3672C172.09 56.1786 170.977 54.4981 169.497 53.6354C168.935 53.3056 168.311 53.0957 167.665 53.0187C167.018 52.9417 166.363 52.9992 165.74 53.1878C163.734 53.7607 161.485 55.5381 162.163 60.7528C162.694 64.8338 163.134 69.0034 163.56 73.0311C163.742 74.7501 163.926 76.4684 164.112 78.1873C163.431 89.6209 162.677 99.9293 160.365 110.194C157.345 123.602 151.105 136.241 141.82 147.757C134.288 157.098 124.665 162.887 112.398 165.453C102.246 167.502 91.8336 167.91 81.554 166.662C73.1975 165.705 63.4003 164.183 54.0923 160.154C43.3159 155.49 35.6885 149.982 30.0868 142.819C21.7986 132.191 15.8741 119.902 12.7122 106.782C10.5717 98.4507 10.0012 89.7917 11.0304 81.251C12.6073 68.6825 16.8759 56.3314 24.4627 42.3792C27.1333 37.4547 30.7425 33.1062 35.085 29.5814C45.6544 20.9861 56.1223 15.0835 67.0862 11.5352C74.8832 9.01135 83.4887 8.21802 93.4042 9.11062C99.9935 9.70374 106.397 11.6774 112.589 13.5867C113.976 14.0141 115.364 14.4415 116.755 14.8553L117.395 15.0503C118.58 15.4548 119.803 15.7377 121.044 15.8948C121.868 15.9676 123.577 15.5089 123.903 14.5305C124.057 13.9713 124.088 13.385 123.992 12.8127C123.897 12.2404 123.678 11.6959 123.351 11.2175C122.511 10.1799 121.426 9.37021 120.194 8.86259C116.055 7.13781 112.311 5.60327 108.406 4.29815C100.973 1.80415 93.1816 0.553224 85.3445 0.595264C72.7745 0.700671 60.4405 4.03284 49.5142 10.2749C45.4792 12.5363 41.9132 14.6378 38.6123 16.6997C28.8955 22.7693 21.8345 29.8783 17.0259 38.4327C11.2548 48.6969 7.2682 58.1562 4.83671 67.3488C1.9544 78.2477 0.918874 86.7456 1.47839 94.9004C2.44865 109.016 6.92724 122.993 15.1751 137.628C18.1465 143.033 21.7672 148.051 25.956 152.57C34.7155 161.86 45.8142 168.432 59.8784 172.659C70.6949 175.921 81.9273 177.58 93.2211 177.583C98.0821 177.582 102.939 177.278 107.763 176.674C126.693 174.307 141.269 166.074 152.316 151.504C161.157 139.846 167.013 128.179 170.219 115.839C173.873 101.771 175.23 86.4487 174.368 68.9962C174.136 65.4044 173.553 61.8444 172.628 58.3672Z" fill="black"/>
<path d="M101.249 33.6853C102.025 33.7665 102.801 33.849 103.577 33.9218C104.274 33.9868 106.132 34.1614 106.753 32.347C107.017 31.6636 107.007 30.9044 106.726 30.2278C106.446 29.5512 105.916 29.0096 105.247 28.7161C104.02 28.0928 102.72 27.6255 101.377 27.3248C95.2353 26.0261 88.9254 25.7349 82.6911 26.4626C71.0616 27.8352 61.2971 30.8588 52.839 35.7071C41.6021 42.1475 34.6505 50.3699 31.5871 60.8479C31.1181 62.4544 30.4874 64.0693 29.9298 65.4942C25.1299 77.441 23.9335 90.5422 26.4894 103.167C28.2953 112.091 30.5238 119.294 35.5284 125.45C47.0195 139.582 60.0874 147.555 75.4788 149.827C78.7971 150.316 82.2066 150.48 85.4971 150.638C86.9965 150.71 88.5463 150.785 90.0631 150.889H90.1078H90.124C102.015 150.643 113.69 147.64 124.234 142.115C126.763 140.85 129.093 139.218 131.148 137.272C137.646 130.858 141.741 124.777 144.034 118.137C144.496 116.798 145.107 115.468 145.698 114.182C145.879 113.787 146.061 113.393 146.238 112.997C151.534 101.214 151.486 88.3308 146.092 73.6127C145.642 72.3751 144.937 71.2474 144.023 70.3028C143.436 69.6434 142.683 69.1549 141.843 68.8885C141.002 68.6228 140.107 68.5891 139.25 68.7911C138.433 69.0535 137.702 69.5362 137.139 70.1859C136.575 70.8355 136.2 71.6274 136.053 72.4765C135.691 74.0213 135.959 75.7409 136.195 77.2584L136.249 77.5995C136.524 79.3899 136.857 81.1972 137.179 82.946C137.726 85.9142 138.292 88.9843 138.581 92.0155C139.112 97.0223 138.444 102.084 136.633 106.779C135.022 111.008 133.198 115.151 131.168 119.194C127.811 125.69 124.137 129.946 119.601 132.576C116.049 134.638 112.038 136.104 108.159 137.521L106.631 138.082C99.7742 140.61 92.3969 140.615 85.2202 140.619H85.1653C74.1289 140.619 65.7238 138.171 58.719 132.916C57.5779 132.059 56.378 131.257 55.2175 130.482C53.9329 129.623 52.6048 128.736 51.3719 127.783C44.6887 122.619 40.3221 116.804 38.0232 109.999C35.3169 101.995 32.4844 91.3782 34.6099 80.2234C35.3089 76.881 36.1776 73.5776 37.2128 70.3249C37.8422 68.2272 38.492 66.0581 39.0405 63.8972C41.2825 55.0706 46.7166 48.2339 55.6547 42.9972C67.7116 35.9324 81.1911 32.6504 95.6829 33.2208C97.5341 33.2942 99.421 33.493 101.249 33.6853Z" fill="black"/>
<path d="M69.9031 65.4094C72.832 63.7211 75.9387 62.3662 79.1665 61.3702C82.4957 60.3749 85.999 59.7019 89.3865 59.051C90.2598 58.8827 91.133 58.7151 92.0036 58.5417C93.113 58.3214 94.7896 57.9875 94.8239 56.0185C94.8504 54.4737 93.829 53.4374 92.0936 53.2458C91.1815 53.1433 90.2636 53.107 89.3464 53.1373C83.1872 53.3699 76.9918 54.8076 69.8513 57.664C63.6316 60.0529 58.5649 64.7529 55.7006 70.7903C50.5401 81.4242 50.2345 92.798 54.7948 104.595C56.0787 107.916 58.0103 112.155 61.5815 115.494C69.5829 122.974 79.3172 126.765 90.5166 126.765C91.0476 126.765 91.58 126.78 92.113 126.797C92.6033 126.813 93.1013 126.83 93.6007 126.83C94.1977 126.834 94.7948 126.802 95.3879 126.732C103.192 125.764 109.302 123.137 114.068 118.699C123.016 110.367 127.062 99.2099 126.099 85.5358C125.963 83.6083 125.018 81.7029 124.186 80.023C123.434 78.5067 121.713 77.3491 119.997 78.1968C118.835 78.9101 117.986 80.0385 117.62 81.3554C117.397 82.2733 117.32 83.2211 117.394 84.1624C117.406 84.6217 117.417 85.0557 117.394 85.4799C117.336 86.5245 117.311 87.5867 117.285 88.615C117.29 90.9777 117.107 93.3372 116.739 95.6701C114.442 107.931 107.561 115.13 96.2896 117.069C88.3484 118.433 80.5345 116.948 73.0681 112.652C70.189 110.995 67.262 109.037 65.3552 105.949C59.782 96.9245 58.4048 87.3164 61.2613 77.3913C62.8739 71.7745 65.7846 67.7423 69.9031 65.4094Z" fill="black"/>
<path d="M145.799 23.715C145.894 23.2109 145.996 22.7068 146.098 22.2033C146.452 20.629 146.706 19.0338 146.858 17.4272C147.069 14.585 145.758 13.5755 143.574 12.8674C142.733 12.5694 141.828 12.5014 140.952 12.6701C140.076 12.8388 139.261 13.2382 138.588 13.8275C132.403 19.0162 126.165 24.2744 120.049 29.4553C117.849 31.3204 117.073 33.7077 117.623 36.9676C117.975 39.0633 118.194 41.2273 118.404 43.3204C118.566 44.9114 118.732 46.5555 118.956 48.1705C119.131 49.4392 118.774 50.2993 117.641 51.3433L117.135 51.8092C114.007 54.689 110.773 57.6663 107.734 60.7456C102.323 66.2282 96.8673 71.8449 91.5858 77.2766C89.0787 79.8575 86.5689 82.4372 84.0573 85.0156C82.2616 86.8574 82.6394 88.2755 83.2733 89.1408C83.5074 89.489 83.8224 89.7742 84.1911 89.9724C84.5598 90.1699 84.9712 90.2738 85.3891 90.2751C86.2436 90.2335 87.0644 89.9282 87.7391 89.4C88.915 88.5237 90.0289 87.5661 91.0729 86.5345C97.1215 80.8008 103.166 75.0619 109.207 69.3192L119.026 59.9919C120.015 59.0545 120.721 58.6018 121.976 58.6538C127.333 58.8149 132.778 58.8109 138.044 58.8051C139.539 58.8025 141.034 58.8025 142.53 58.8051H142.542C143.464 58.8291 144.378 58.6437 145.219 58.2627C146.059 57.8817 146.802 57.3149 147.393 56.6048C151.662 51.7111 156.081 46.8024 160.219 42.2264C162.252 39.9793 164.011 37.6374 163.223 33.7064C162.511 30.1724 162.035 28.6087 158.076 28.5866C156.009 28.5833 153.913 28.6931 151.888 28.8088C150.741 28.8737 149.594 28.9388 148.446 28.9817C147.52 29.0155 146.602 29.0082 145.536 28.9991L144.726 28.9926C144.809 28.5859 144.892 28.1872 144.974 27.7961C145.268 26.3786 145.545 25.0487 145.799 23.715ZM155.361 36.7077L155.521 36.7194L144.44 50.8028H125.844C125.79 50.6144 125.731 50.4229 125.672 50.2287C125.401 49.4594 125.228 48.659 125.155 47.8463C125.073 45.696 125.077 43.4996 125.08 41.376C125.08 40.102 125.084 38.8282 125.069 37.5556C125.053 36.2992 125.236 35.2955 126.172 34.4835C129.674 31.4471 133.164 28.3944 136.868 25.154L139.995 22.4203C139.964 22.9056 139.937 23.2583 139.885 23.5981C139.735 24.5615 139.568 25.5224 139.4 26.4832C139.083 28.3119 138.753 30.203 138.554 32.0876C138.378 33.7494 138.61 34.8809 139.283 35.6442C139.957 36.4075 141.021 36.7707 142.652 36.8006C145.035 36.8461 147.456 36.7778 149.795 36.7135C151.063 36.6791 152.332 36.6447 153.6 36.6265C154.12 36.6252 154.637 36.6597 155.36 36.7103L155.361 36.7077Z" fill="black"/>
</g>
<defs>
<clipPath id="clip0">
<rect width="174" height="178" fill="white" transform="translate(0.777344)"/>
</clipPath>
</defs>
</svg>

<svg xmlns="http://www.w3.org/2000/svg" width="175" height="178" fill="none" viewBox="0 0 175 178"><g fill="#000" clip-path="url(#a)"><path d="M172.628 58.367c-.538-2.188-1.651-3.869-3.131-4.732a4.73 4.73 0 0 0-3.757-.447c-2.006.573-4.255 2.35-3.577 7.565.531 4.08.971 8.25 1.397 12.278q.273 2.579.552 5.156c-.681 11.434-1.435 21.742-3.747 32.007-3.02 13.408-9.26 26.047-18.545 37.563-7.532 9.341-17.155 15.13-29.422 17.696a96.9 96.9 0 0 1-30.844 1.209c-8.356-.957-18.154-2.479-27.462-6.508-10.776-4.664-18.403-10.172-24.005-17.335a94.7 94.7 0 0 1-17.375-36.037 69.3 69.3 0 0 1-1.682-25.531c1.577-12.568 5.846-24.92 13.433-38.872a42.7 42.7 0 0 1 10.622-12.798c10.57-8.595 21.037-14.497 32.001-18.046 7.797-2.524 16.403-3.317 26.318-2.424 6.59.593 12.993 2.566 19.185 4.476 1.387.427 2.775.854 4.166 1.268l.64.195c1.185.405 2.408.688 3.649.845.824.073 2.533-.386 2.859-1.364a3.99 3.99 0 0 0-.552-3.314 8 8 0 0 0-3.157-2.354c-4.139-1.725-7.883-3.26-11.788-4.565A71.3 71.3 0 0 0 85.344.595a73.47 73.47 0 0 0-35.83 9.68A266 266 0 0 0 38.612 16.7c-9.717 6.07-16.778 13.178-21.586 21.733-5.771 10.264-9.758 19.723-12.19 28.916C1.955 78.248.92 86.746 1.479 94.9c.97 14.116 5.45 28.093 13.697 42.728a75.4 75.4 0 0 0 10.781 14.942c8.76 9.29 19.858 15.862 33.922 20.089a115.6 115.6 0 0 0 33.343 4.924c4.861-.001 9.718-.305 14.542-.909 18.93-2.367 33.506-10.6 44.553-25.17 8.841-11.658 14.697-23.325 17.903-35.665 3.654-14.068 5.011-29.39 4.149-46.843a55 55 0 0 0-1.74-10.629"/><path d="M101.249 33.685c.776.081 1.552.164 2.328.237.697.065 2.555.24 3.176-1.575a2.85 2.85 0 0 0-1.506-3.63 16.5 16.5 0 0 0-3.87-1.392 57.9 57.9 0 0 0-18.686-.862c-11.63 1.372-21.394 4.396-29.852 9.244-11.237 6.44-18.188 14.663-21.252 25.14-.469 1.607-1.1 3.222-1.657 4.647a65.96 65.96 0 0 0-3.44 37.673c1.805 8.924 4.034 16.127 9.038 22.283 11.492 14.132 24.56 22.105 39.95 24.377 3.32.489 6.729.653 10.02.811 1.498.072 3.048.147 4.565.251h.061a76.9 76.9 0 0 0 34.11-8.774 28.8 28.8 0 0 0 6.914-4.843c6.498-6.414 10.593-12.495 12.886-19.135.462-1.339 1.073-2.669 1.664-3.955q.273-.592.54-1.185c5.296-11.783 5.248-24.666-.146-39.384a9.4 9.4 0 0 0-2.069-3.31 4.88 4.88 0 0 0-4.773-1.512 4.7 4.7 0 0 0-2.111 1.395 4.7 4.7 0 0 0-1.086 2.29c-.362 1.545-.094 3.265.142 4.782l.054.342c.275 1.79.608 3.597.93 5.346.547 2.968 1.113 6.038 1.402 9.07a31.7 31.7 0 0 1-1.948 14.763 134 134 0 0 1-5.465 12.415c-3.357 6.496-7.031 10.752-11.567 13.382-3.552 2.062-7.563 3.528-11.442 4.945l-1.528.561c-6.857 2.528-14.234 2.533-21.41 2.537h-.056c-11.036 0-19.441-2.448-26.446-7.703-1.141-.857-2.341-1.659-3.501-2.434-1.285-.859-2.613-1.746-3.846-2.699-6.683-5.164-11.05-10.979-13.349-17.784-2.706-8.004-5.539-18.62-3.413-29.776a100 100 0 0 1 2.603-9.898c.63-2.098 1.279-4.267 1.828-6.428 2.242-8.826 7.676-15.663 16.614-20.9 12.057-7.065 25.536-10.347 40.028-9.776 1.851.073 3.738.272 5.566.464"/><path d="M69.903 65.41a45.3 45.3 0 0 1 9.263-4.04c3.33-.995 6.833-1.668 10.22-2.319q1.311-.25 2.618-.51c1.109-.22 2.786-.553 2.82-2.522.026-1.545-.995-2.582-2.73-2.773a19 19 0 0 0-2.748-.109c-6.159.233-12.354 1.67-19.495 4.527a25.98 25.98 0 0 0-14.15 13.126c-5.16 10.634-5.467 22.008-.906 33.805 1.284 3.321 3.215 7.56 6.786 10.899 8.002 7.48 17.736 11.271 28.936 11.271.53 0 1.063.015 1.596.032.49.016.988.033 1.488.033q.896.007 1.787-.098c7.804-.968 13.914-3.595 18.68-8.033 8.948-8.332 12.994-19.49 12.031-33.163-.136-1.928-1.081-3.833-1.913-5.513-.752-1.516-2.473-2.674-4.189-1.826a5.4 5.4 0 0 0-2.377 3.158 9 9 0 0 0-.226 2.807c.012.46.023.894 0 1.318-.058 1.044-.083 2.107-.109 3.135a45 45 0 0 1-.546 7.055c-2.297 12.261-9.178 19.46-20.45 21.399-7.94 1.364-15.755-.121-23.22-4.417-2.88-1.657-5.807-3.615-7.714-6.703-5.573-9.025-6.95-18.633-4.094-28.558 1.613-5.617 4.524-9.649 8.642-11.982"/><path d="M145.799 23.715q.144-.756.299-1.512a38 38 0 0 0 .76-4.776c.211-2.842-1.1-3.851-3.284-4.56a5.01 5.01 0 0 0-4.986.96 5089 5089 0 0 0-18.539 15.628c-2.2 1.865-2.976 4.253-2.426 7.513.352 2.095.571 4.26.781 6.352.162 1.591.328 3.236.552 4.85.175 1.27-.182 2.13-1.315 3.173l-.506.466c-3.128 2.88-6.362 5.857-9.401 8.937-5.411 5.482-10.867 11.099-16.148 16.53q-3.76 3.872-7.529 7.74c-1.795 1.841-1.418 3.26-.784 4.125a2.55 2.55 0 0 0 2.116 1.134 4.14 4.14 0 0 0 2.35-.875 32 32 0 0 0 3.334-2.866 17722 17722 0 0 0 18.134-17.215l9.819-9.327c.989-.937 1.695-1.39 2.95-1.338 5.357.16 10.802.157 16.068.151q2.242-.003 4.486 0h.012a6.1 6.1 0 0 0 4.851-2.2c4.269-4.894 8.688-9.803 12.826-14.379 2.033-2.247 3.792-4.589 3.004-8.52-.712-3.534-1.188-5.097-5.147-5.12-2.067-.003-4.163.107-6.188.223-1.147.065-2.294.13-3.442.173-.926.034-1.844.026-2.91.017l-.81-.006q.125-.61.248-1.197c.294-1.417.571-2.747.825-4.081m9.562 12.993.16.011-11.081 14.084h-18.596q-.082-.283-.172-.574a9.8 9.8 0 0 1-.517-2.383c-.082-2.15-.078-4.346-.075-6.47 0-1.274.004-2.548-.011-3.82-.016-1.257.167-2.26 1.103-3.072 3.502-3.037 6.992-6.09 10.696-9.33l3.127-2.734a13 13 0 0 1-.11 1.178c-.15.963-.317 1.924-.485 2.885-.317 1.829-.647 3.72-.846 5.605-.176 1.661.056 2.793.729 3.556.674.764 1.738 1.127 3.369 1.157 2.383.045 4.804-.023 7.143-.087 1.268-.035 2.537-.07 3.805-.087.52-.002 1.037.033 1.76.083z"/></g><defs><clipPath id="a"><path fill="#fff" d="M.777 0h174v178h-174z"/></clipPath></defs></svg>
